X: 54
T: Galway Belle
M: C
L: 1/4
R: Irish polka
% K: G
K: G
|: "Em" E > F G A | B e B2 | "D" A F D F | E F D F |
"Em" E > F G A | B e B2 | "D" A F D F | "Em" E2 E2 :|
|: "Em" e e B2 | e e B2 | "D" A F D F | E F D F |
|1 "Em" e e B2 | e e B2 | "D" A F D F | "Em" E2 E2 :|
|2 "Em" E > F G A | B e B2 | "D" A F D F | "Em" E2 E2 |]

